Desktop/project_createx/public/images/decor/lines2.svg

<svg xmlns="http://www.w3.org/2000/svg" width="764" height="763" fill="none"><g stroke="#00F0B5" opacity=".4"><path d="M681.135 349.663c28.991 35.228 43.047 67.145 42.307 95.766-.739 28.595-16.252 54.023-46.683 76.282q-91.52 66.942-173.054 109.988c-54.254 28.644-119.487 35.006-195.738 19.03-76.164-15.957-135.203-63.961-177.117-144.091-20.958-40.069-31.26-77.451-30.941-112.155.318-34.698 11.253-66.749 32.819-96.165q64.865-88.476 116.692-148.441c34.474-39.888 81.997-64.752 142.61-74.568 30.26-4.9 57.557-.953 81.914 11.822 24.362 12.778 45.819 34.407 64.358 64.93q55.74 91.771 142.833 197.602Z"/><path d="M624.675 355.722c23.537 28.61 34.941 54.512 34.35 77.722-.59 23.183-13.151 43.803-37.829 61.858q-74.259 54.33-140.417 89.255c-44.004 23.231-96.927 28.377-158.808 15.382-61.794-12.977-109.71-51.957-143.746-117.023-17.02-32.536-25.388-62.881-25.141-91.045.247-28.156 9.106-54.161 26.59-78.027q52.62-71.826 94.664-120.502c27.953-32.362 66.496-52.528 115.673-60.477 24.543-3.967 46.68-.755 66.434 9.617 19.76 10.375 37.172 27.932 52.223 52.715q45.278 74.55 116.007 160.525Z"/></g></svg>

<svg width="764" height="763" viewBox="0 0 764 763" fill="none" xmlns="http://www.w3.org/2000/svg">
<g opacity="0.4">
<path d="M681.135 349.663C710.126 384.891 724.182 416.808 723.442 445.429C722.703 474.024 707.19 499.452 676.759 521.711C615.746 566.339 558.061 603.001 503.705 631.699C449.451 660.343 384.218 666.705 307.967 650.729C231.803 634.772 172.764 586.768 130.85 506.638C109.892 466.569 99.5899 429.187 99.9086 394.483C100.227 359.785 111.162 327.734 132.728 298.318C175.971 239.334 214.869 189.854 249.42 149.877C283.894 109.989 331.417 85.1255 392.03 75.3092C422.29 70.4085 449.587 74.3559 473.944 87.1309C498.306 99.9089 519.763 121.538 538.302 152.061C575.461 213.242 623.074 279.109 681.135 349.663Z" stroke="#00F0B5"/>
<path d="M624.675 355.722C648.212 384.332 659.616 410.234 659.025 433.444C658.435 456.627 645.874 477.247 621.196 495.302C571.69 531.522 524.885 561.273 480.779 584.557C436.775 607.788 383.852 612.934 321.971 599.939C260.177 586.962 212.261 547.982 178.225 482.916C161.205 450.38 152.837 420.035 153.084 391.871C153.331 363.715 162.19 337.71 179.674 313.844C214.754 265.96 246.308 225.793 274.338 193.342C302.291 160.98 340.834 140.814 390.011 132.865C414.554 128.898 436.691 132.11 456.445 142.482C476.205 152.857 493.617 170.414 508.668 195.197C538.852 244.897 577.523 298.406 624.675 355.722Z" stroke="#00F0B5"/>
</g>
</svg>
